src/_assets/sidebar/referendum-killer-icon.svg

<svg width="24" height="24" viewBox="0 0 24 24" fill="none" xmlns="http://www.w3.org/2000/svg">
<rect x="4" y="3.5" width="16.4" height="16.4" rx="2" stroke="#485F7D" stroke-width="1.47"/>
<path d="M12.0361 7.01778C9.79714 7.10022 7.97039 8.90961 7.8706 11.1529C7.8335 11.8963 7.98943 12.6367 8.32322 13.302C8.65702 13.9673 9.15731 14.5349 9.77545 14.9496V15.6916C9.77545 15.8757 9.84859 16.0523 9.97879 16.1825C10.109 16.3127 10.2856 16.3858 10.4697 16.3858H10.8168C10.8629 16.3858 10.907 16.3675 10.9396 16.335C10.9721 16.3024 10.9904 16.2583 10.9904 16.2123V15.1839C10.989 15.0938 11.0218 15.0066 11.0822 14.9397C11.1426 14.8729 11.2261 14.8314 11.3158 14.8238C11.3632 14.8208 11.4107 14.8276 11.4553 14.8437C11.5 14.8598 11.5409 14.8849 11.5754 14.9174C11.61 14.95 11.6375 14.9893 11.6563 15.0328C11.6751 15.0764 11.6847 15.1234 11.6846 15.1709V16.2123C11.6846 16.2583 11.7029 16.3024 11.7355 16.335C11.768 16.3675 11.8122 16.3858 11.8582 16.3858H12.5525C12.5985 16.3858 12.6426 16.3675 12.6752 16.335C12.7077 16.3024 12.726 16.2583 12.726 16.2123V15.1839C12.7246 15.0938 12.7574 15.0066 12.8178 14.9397C12.8782 14.8729 12.9617 14.8314 13.0514 14.8238C13.0988 14.8208 13.1463 14.8276 13.191 14.8437C13.2356 14.8598 13.2765 14.8849 13.311 14.9174C13.3456 14.95 13.3731 14.9893 13.3919 15.0328C13.4107 15.0764 13.4204 15.1234 13.4203 15.1709V16.2123C13.4203 16.2583 13.4386 16.3024 13.4711 16.335C13.5037 16.3675 13.5478 16.3858 13.5938 16.3858H13.941C14.1251 16.3858 14.3017 16.3127 14.4319 16.1825C14.5621 16.0523 14.6352 15.8757 14.6352 15.6916V14.9496C15.4173 14.4215 16.006 13.6528 16.3119 12.7601C16.6178 11.8673 16.6244 10.8991 16.3305 10.0023C16.0366 9.10553 15.4584 8.32898 14.6835 7.7904C13.9085 7.25182 12.9791 6.98058 12.0361 7.01778ZM10.6433 12.9146C10.4716 12.9146 10.3038 12.8637 10.1611 12.7683C10.0184 12.673 9.90719 12.5374 9.84151 12.3789C9.77582 12.2203 9.75864 12.0458 9.79212 11.8775C9.82561 11.7091 9.90826 11.5545 10.0296 11.4331C10.151 11.3118 10.3056 11.2291 10.474 11.1956C10.6423 11.1621 10.8168 11.1793 10.9754 11.245C11.1339 11.3107 11.2695 11.4219 11.3648 11.5646C11.4602 11.7073 11.5111 11.8751 11.5111 12.0468C11.5099 12.2766 11.4181 12.4966 11.2556 12.6591C11.0931 12.8216 10.8731 12.9134 10.6433 12.9146ZM13.7674 12.9146C13.5958 12.9146 13.428 12.8637 13.2853 12.7683C13.1425 12.673 13.0313 12.5374 12.9656 12.3789C12.9 12.2203 12.8828 12.0458 12.9163 11.8775C12.9497 11.7091 13.0324 11.5545 13.1538 11.4331C13.2751 11.3118 13.4298 11.2291 13.5981 11.1956C13.7664 11.1621 13.9409 11.1793 14.0995 11.245C14.2581 11.3107 14.3936 11.4219 14.489 11.5646C14.5843 11.7073 14.6352 11.8751 14.6352 12.0468C14.6341 12.2766 14.5423 12.4966 14.3798 12.6591C14.2173 12.8216 13.9972 12.9134 13.7674 12.9146Z" fill="#485F7D"/>
</svg>

<svg xmlns="http://www.w3.org/2000/svg" width="24" height="24" fill="none"><rect width="16.4" height="16.4" x="4" y="3.5" stroke="#485F7D" stroke-width="1.47" rx="2"/><path fill="#485F7D" d="M12.036 7.018a4.347 4.347 0 0 0-3.713 6.284 4.3 4.3 0 0 0 1.452 1.648v.742a.694.694 0 0 0 .695.694h.347a.174.174 0 0 0 .173-.174v-1.028a.356.356 0 0 1 .326-.36.346.346 0 0 1 .369.347v1.041a.173.173 0 0 0 .173.174h.694a.174.174 0 0 0 .174-.174v-1.028a.356.356 0 0 1 .325-.36.347.347 0 0 1 .37.347v1.041a.174.174 0 0 0 .173.174h.347a.694.694 0 0 0 .694-.694v-.742a4.34 4.34 0 0 0-2.599-7.932m-1.393 5.897a.868.868 0 1 1 0-1.736.868.868 0 0 1 0 1.736m3.124 0a.867.867 0 1 1 0-1.735.867.867 0 0 1 0 1.735"/></svg>
